public/images/icons/truck.svg

<svg width="26" height="26" viewBox="0 0 26 26" fill="none" xmlns="http://www.w3.org/2000/svg">
<path d="M15.1665 7.58337H17.6985C17.9635 7.58337 18.096 7.58337 18.2207 7.61331C18.3312 7.63984 18.4369 7.68362 18.5338 7.74301C18.6431 7.81001 18.7368 7.90369 18.9242 8.09106L23.3255 12.4924C23.5129 12.6797 23.6065 12.7734 23.6735 12.8827C23.7329 12.9797 23.7767 13.0853 23.8032 13.1959C23.8332 13.3206 23.8332 13.453 23.8332 13.718V16.7917C23.8332 17.2965 23.8332 17.5489 23.7507 17.7479C23.6408 18.0134 23.4299 18.2243 23.1644 18.3342C22.9653 18.4167 22.7129 18.4167 22.2082 18.4167M16.7915 18.4167H15.1665M15.1665 18.4167V7.80004C15.1665 6.58659 15.1665 5.97987 14.9304 5.51639C14.7226 5.10871 14.3912 4.77725 13.9835 4.56953C13.52 4.33337 12.9133 4.33337 11.6998 4.33337H5.63317C4.41972 4.33337 3.813 4.33337 3.34952 4.56953C2.94184 4.77725 2.61038 5.10871 2.40266 5.51639C2.1665 5.97987 2.1665 6.58659 2.1665 7.80004V16.25C2.1665 17.4467 3.13655 18.4167 4.33317 18.4167M15.1665 18.4167H10.8332M10.8332 18.4167C10.8332 20.2116 9.3781 21.6667 7.58317 21.6667C5.78825 21.6667 4.33317 20.2116 4.33317 18.4167M10.8332 18.4167C10.8332 16.6218 9.3781 15.1667 7.58317 15.1667C5.78825 15.1667 4.33317 16.6218 4.33317 18.4167M22.2082 18.9584C22.2082 20.4541 20.9956 21.6667 19.4998 21.6667C18.0041 21.6667 16.7915 20.4541 16.7915 18.9584C16.7915 17.4626 18.0041 16.25 19.4998 16.25C20.9956 16.25 22.2082 17.4626 22.2082 18.9584Z" stroke="#FBFBFB" stroke-width="2.16667" stroke-linecap="round" stroke-linejoin="round"/>
</svg>

<svg xmlns="http://www.w3.org/2000/svg" width="26" height="26" fill="none"><path stroke="#FBFBFB" stroke-linecap="round" stroke-linejoin="round" stroke-width="2.167" d="M15.166 7.583h2.532c.265 0 .398 0 .523.03.11.027.216.07.313.13.11.067.203.16.39.348l4.402 4.401c.187.188.28.281.348.39.059.098.103.203.13.314.03.125.03.257.03.522v3.074c0 .505 0 .757-.083.956-.11.265-.321.476-.587.586-.199.083-.451.083-.956.083m-5.416 0h-1.626m0 0V7.8c0-1.213 0-1.82-.236-2.284a2.167 2.167 0 0 0-.947-.946c-.463-.237-1.07-.237-2.283-.237H5.633c-1.213 0-1.82 0-2.283.237-.408.207-.74.539-.947.946-.236.464-.236 1.07-.236 2.284v8.45c0 1.197.97 2.167 2.166 2.167m10.834 0h-4.334m0 0a3.25 3.25 0 0 1-6.5 0m6.5 0a3.25 3.25 0 0 0-6.5 0m17.875.541a2.708 2.708 0 1 1-5.417 0 2.708 2.708 0 0 1 5.417 0Z"/></svg>
